!!!!SEGMENT: pl-wtm--r-1588--002_stefani-jozef--antiphonae-ad-vesperas-antiphona.krn
!!!cenid: 18xx:2344
!!!COM: Stefani, Józef
!!!COM-rismid: pe30024097
!!!CDT: 1800/04/16-1876/03/19
!!!CNT: Polish
!!!OPR: Antiphonae ad Vesperas
!!!OTL: Antiphona
!!!OMV: 002
!!!PDT:
!!!AGN: Sacred; Vespers
!!!SMS-siglum: PL-Wtm
!!!SMS-shelfmark: R 1588
!!!SMS-shelfwork: 001-002 M
!!!SMS-variant:
!!!SMS-altvar:
!!!NIFC-rismid: 1001115605
!!!URL-scan: http://repozytorium.nifc.pl/skany/pl-wtm-nut--r1588
!!!ONB-nifc: UWAGA: części: 4 Antyfony (001-004), Hymnus (005) i Magnificat (006)
**kern	**text	**dynam	**kern	**kern	**text	**dynam
*part3	*part3	*part3	*part2	*part1	*part1	*part1
*staff3	*staff3	*	*staff2	*staff1	*staff1	*
*I"Basſo	*	*	*I"Tenore 2º.	*I"Tenore 1º.	*	*
*clefF4	*	*	*clefC4	*clefC4	*	*
*k[fncngnb-]	*	*	*k[cnfngnb-]	*k[cnfngnb-]	*	*
*F:	*	*	*F:	*F:	*	*
*M3/4	*	*	*M3/4	*M3/4	*	*
*all\right	*	*	*all\right	*all\right	*	*
!LO:TX:a:t=P:problem:znaki Fn CCn Gn B-	!	!LO:DY:a:rj	!	!LO:TX:a:t=Antiphona II.	!	!LO:DY:a
([4A\	Lae-	mf	[4A\	([4A\	Lae-	mf
=1	=1	=1	=1	=1	=1	=1
*	*	*	*2\right	*	*	*
4A\]	.	.	2A\]	4A\]	.	.
4F\)	.	.	.	4c\)	.	.
4F\	-va	.	4A\	4f\	-va	.
=2	=2	=2	=2	=2	=2	=2
*2\right	*	*	*	*	*	*
2F\	e-	.	2B-\	(4.e\	e-	.
.	.	.	.	8d\)	.	.
4F\	-jus	.	4A\	4c\	-jus	.
=3	=3	=3	=3	=3	=3	=3
*	*	*	*^	*	*	*
8.F\	sub	.	8.A\	2ryy	8.c\	sub	.
16F\	ca-	.	16F/	.	16A\	ca-	.
(8F\L	-pi-	.	8F/L	.	(8A\L	-pi-	.
8E\J)	.	.	8G/J	.	8c\J)	.	.
(8D\L	-to	.	(8A/L	4F\	(8f\L	-to	.
8D-X\J)	.	.	8G/J)	.	8Bn\J)	.	.
!!LO:PB:g=original
=4	=4	=4	=4	=4	=4	=4	=4
4D-X^\	me-	.	4G/	4F\	4Bn^\	me-	.
8C\	-o	.	8G/	8E\	8c\	-o,	.
8r	.	.	8r	8ryy	8r	.	.
4C/	et	.	4E/	4ryy	4c\	et	.
*	*	*	*v	*v	*	*	*
=5	=5	=5	=5	=5	=5	=5
!	!	!	!	!	!	!LO:DY:a:rj
4.BB-/	dex-	.	4.F/	4.d\	dex-	f
8BB-/	-te-	.	8G/	8e\	-te-	.
4BB-/	-ra	.	4G/	4e\	-ra	.
=6	=6	=6	=6	=6	=6	=6
4AA/	il-	.	4F/	4f\	il-	.
4AA/	-li-	.	4F/	4c\	-li-	.
8AA/	-us	.	8c\	8f\	-us	.
8BB-/	am-	.	8B-\	8d\	am-	.
=7	=7	=7	=7	=7	=7	=7
[>4.C/	-plexa-	.	(4A/	(4c\	-ple-	.
.	.	.	8F/)	8A\)	-xa-	.
8C/]	.	.	(<8A/	(8c\	-bi-	.
8.C/	-bi-	.	8.B-\)	8.d\)	-tur	.
16C/	-tur	.	16G/	16e\	.	.
!!LO:LB:g=original
=8	=8	=8	=8	=8	=8	=8
4.F\	me.	.	4.A/	4.f\	me.	.
8r	.	.	8r	8r	.	.
!	!	!LO:DY:a:rj	!	!	!	!LO:DY:a:rj
4C#X\	et	p	4A/	(8.A\L	et	p
.	.	.	.	16e\Jk)	.	.
=9	=9	=9	=9	=9	=9	=9
8.D\	dex-	.	8.A/	8.f\	dex-	.
16D\	-te-	.	16A/	16f\	-te-	.
4D\	-ra	.	4F/	4d\	-ra	.
4BBn/	il-	.	4G/	(8.G/L	il-	.
.	.	.	.	16d/Jk)	.	.
=10	=10	=10	=10	=10	=10	=10
4C/	-li-	.	4G/	4e\	-li-	.
!LO:N:vis=8	!	!	!	!	!	!
4C/	-us	.	4E/	4c\	-us	.
!	!	!LO:DY:a	!	!	!	!LO:DY:a
8.C/	am-	<	8.G/	8.e\	am-	<
16C/	-ple-	[[	16B-X\	16g\	-ple-	[[
=11	=11	=11	=11	=11	=11	=11
!	!	!LO:DY:a	!	!	!	!LO:DY:a
2D/	-xa-	>	2A\	(4.g\	-xa-	>
.	.	.	.	8f\)	.	]
8BB-/	-bi-	]	8B-\	8e\	-bi-	.
8BB-/	-tur	.	8B-\	8d\	-tur	.
!!LO:LB:g=original
=12	=12	=12	=12	=12	=12	=12
4C/	me.	.	4A/	4c\	me.	.
4C/	am-	.	4F/	4A\	am-	.
4C/	-ple-	.	4A/	4f\	-ple-	.
=13	=13	=13	=13	=13	=13	=13
4C/	-xa-	.	4B- 4G\	4f\	-xa-	.
4C/	-bi-	.	4B- 4G\	(8e\L	-bi-	.
.	.	.	.	8d\J)	.	.
4C/	-tur	.	4B- 4G\	4e\	-tur	.
=14	=14	=14	=14	=14	=14	=14
*	*	*	*^	*	*	*
4D/	me	.	4A/	4F\	4f\	me	.
!	!	!LO:DY:a:rj	!	!	!	!	!LO:DY:a:rj
4BB-/	am-	f	4B-\	2ryy	4d\	am-	f
4AA/	-ple-	.	4B-\	.	4g\	-ple-	.
*	*	*	*v	*v	*	*	*
=15	=15	=15	=15	=15	=15	=15
2.C/	-xa-	.	(2A/	(4f\	-xa-	.
.	.	.	.	4c\)	.	.
.	.	.	4F/)	4A\	-[[bi]]-	.
=16	=16	=16	=16	=16	=16	=16
2C/	-bi-	.	(4F/	2G/	-bi-	.
.	.	.	8E/L	.	.	.
.	.	.	8D/J)	.	.	.
4C/	-tur	.	4E/	4c\	-tur	.
!!LO:LB:g=original
=17	=17	=17	=17	=17	=17	=17
2F\	me.	.	2F/	2F/	me.	.
4r	.	.	4r	4r	.	.
==	==	==	==	==	==	==
*-	*-	*-	*-	*-	*-	*-
!!!system-decoration: {s1,s2,s3}
!!!ENC: Marta Lawrence
!!!END: 2021-06-13
!!!ENC: Andrzej Kubiczek
!!!END: 2021-06-04
